X: 21663
T: PRINCE CHARLIE'S STRATHSPEY
R: strathspey
B: K\"ohler's Violin Repository, v.2, 1885 p.166 #3
F: http://www.archive.org/details/klersviolinrepos02rugg
Z: 2012 John Chambers <jc:trillian.mit.edu>
M: C|
L: 1/8
K: Em
uB !segno!|\
E<E (E>F) {cBA}B2 B^c | {^c}d2 (A>G) FDDF | E<E (E>F) {cBA}B2 B^c | {^c}d2 (A<F) E<(E {cBA}B2) |
E<E (E>F) {cBA}B2 B^c | {^c}d2 (A>G) FDDF | E<E (E>F) {cBA}B2 (Ba) | (ge)f^d | e/e/e b2 |]
[|\
ueB(ef) (ge)Bg | fb(ag) (fd)df | eB(ef) (ge)Bg | bgaf e/e/e b2 |
 eB(ef) (ge)Bg | fd(AG) FEDf | ge(Bg) (Af) (Ge) | (Fd) AF "^Segue Reel."E/E/E {cBA}B2 "_D.C."!segno!|]

%%sep 2 1 500

